assets/vectors/clip_sun.SVG

<?xml version="1.0" encoding="UTF-8" standalone="no"?>
<svg xmlns="http://www.w3.org/2000/svg" height="110" width="440">
    	
    <path d="M140.5,90.5h10v10h-10z" fill="#000000"/>
    	
    <path d="M150.5,80.5h10v10h-10z" fill="#000000"/>
    	
    <path d="M140.5,50.5h10v10h-10z" fill="#000000"/>
    	
    <path d="M130.5,50.5h10v10h-10z" fill="#000000"/>
    	
    <path d="M140.5,10.5h10v10h-10z" fill="#000000"/>
    	
    <path d="M150.5,20.5h10v10h-10z" fill="#000000"/>
    	
    <path d="M160.5,70.5h10v10h-10z" fill="#000000"/>
    	
    <path d="M150.5,40.5h10v10h-10z" fill="#000000"/>
    	
    <path d="M150.5,50.5h10v10h-10z" fill="#000000"/>
    	
    <path d="M150.5,60.5h10v10h-10z" fill="#000000"/>
    	
    <path d="M160.5,30.5h10v10h-10z" fill="#000000"/>
    	
    <path d="M220.5,90.5h10v10h-10z" fill="#000000"/>
    	
    <path d="M210.5,80.5h10v10h-10z" fill="#000000"/>
    	
    <path d="M220.5,50.5h10v10h-10z" fill="#000000"/>
    	
    <path d="M230.5,50.5h10v10h-10z" fill="#000000"/>
    	
    <path d="M180.5,90.5h10v10h-10z" fill="#000000"/>
    	
    <path d="M180.5,100.5h10v10h-10z" fill="#000000"/>
    	
    <path d="M190.5,80.5h10v10h-10z" fill="#000000"/>
    	
    <path d="M180.5,80.5h10v10h-10z" fill="#000000"/>
    	
    <path d="M170.5,80.5h10v10h-10z" fill="#000000"/>
    	
    <path d="M200.5,70.5h10v10h-10z" fill="#000000"/>
    	
    <path d="M210.5,60.5h10v10h-10z" fill="#000000"/>
    	
    <path d="M210.5,40.5h10v10h-10z" fill="#000000"/>
    	
    <path d="M210.5,50.5h10v10h-10z" fill="#000000"/>
    	
    <path d="M220.5,10.5h10v10h-10z" fill="#000000"/>
    	
    <path d="M210.5,20.5h10v10h-10z" fill="#000000"/>
    	
    <path d="M200.5,30.5h10v10h-10z" fill="#000000"/>
    	
    <path d="M170.5,20.5h10v10h-10z" fill="#000000"/>
    	
    <path d="M180.5,20.5h10v10h-10z" fill="#000000"/>
    	
    <path d="M190.5,20.5h10v10h-10z" fill="#000000"/>
    	
    <path d="M180.5,10.5h10v10h-10z" fill="#000000"/>
    	
    <path d="M180.5,0.5h10v10h-10z" fill="#000000"/>
    
</svg>

<svg
    xmlns="http://www.w3.org/2000/svg"
    viewBox="0 0 440 110"
    id="vector">
    <path
        id="path"
        d="M 140.5 90.5 L 150.5 90.5 L 150.5 100.5 L 140.5 100.5 Z M 150.5 80.5 L 160.5 80.5 L 160.5 90.5 L 150.5 90.5 Z M 140.5 50.5 L 150.5 50.5 L 150.5 60.5 L 140.5 60.5 Z M 130.5 50.5 L 140.5 50.5 L 140.5 60.5 L 130.5 60.5 Z M 140.5 10.5 L 150.5 10.5 L 150.5 20.5 L 140.5 20.5 Z M 150.5 20.5 L 160.5 20.5 L 160.5 30.5 L 150.5 30.5 Z M 160.5 70.5 L 170.5 70.5 L 170.5 80.5 L 160.5 80.5 Z M 150.5 40.5 L 160.5 40.5 L 160.5 50.5 L 150.5 50.5 Z M 150.5 50.5 L 160.5 50.5 L 160.5 60.5 L 150.5 60.5 Z M 150.5 60.5 L 160.5 60.5 L 160.5 70.5 L 150.5 70.5 Z M 160.5 30.5 L 170.5 30.5 L 170.5 40.5 L 160.5 40.5 Z M 220.5 90.5 L 230.5 90.5 L 230.5 100.5 L 220.5 100.5 Z M 210.5 80.5 L 220.5 80.5 L 220.5 90.5 L 210.5 90.5 Z M 220.5 50.5 L 230.5 50.5 L 230.5 60.5 L 220.5 60.5 Z M 230.5 50.5 L 240.5 50.5 L 240.5 60.5 L 230.5 60.5 Z M 180.5 90.5 L 190.5 90.5 L 190.5 100.5 L 180.5 100.5 Z M 180.5 100.5 L 190.5 100.5 L 190.5 110.5 L 180.5 110.5 Z M 190.5 80.5 L 200.5 80.5 L 200.5 90.5 L 190.5 90.5 Z M 180.5 80.5 L 190.5 80.5 L 190.5 90.5 L 180.5 90.5 Z M 170.5 80.5 L 180.5 80.5 L 180.5 90.5 L 170.5 90.5 Z M 200.5 70.5 L 210.5 70.5 L 210.5 80.5 L 200.5 80.5 Z M 210.5 60.5 L 220.5 60.5 L 220.5 70.5 L 210.5 70.5 Z M 210.5 40.5 L 220.5 40.5 L 220.5 50.5 L 210.5 50.5 Z M 210.5 50.5 L 220.5 50.5 L 220.5 60.5 L 210.5 60.5 Z M 220.5 10.5 L 230.5 10.5 L 230.5 20.5 L 220.5 20.5 Z M 210.5 20.5 L 220.5 20.5 L 220.5 30.5 L 210.5 30.5 Z M 200.5 30.5 L 210.5 30.5 L 210.5 40.5 L 200.5 40.5 Z M 170.5 20.5 L 180.5 20.5 L 180.5 30.5 L 170.5 30.5 Z M 180.5 20.5 L 190.5 20.5 L 190.5 30.5 L 180.5 30.5 Z M 190.5 20.5 L 200.5 20.5 L 200.5 30.5 L 190.5 30.5 Z M 180.5 10.5 L 190.5 10.5 L 190.5 20.5 L 180.5 20.5 Z M 180.5 0.5 L 190.5 0.5 L 190.5 10.5 L 180.5 10.5 Z"
        fill="#000000"
        stroke-width="1" />
</svg>
